svgs/sharp-solid/desktop.svg

<svg xmlns="http://www.w3.org/2000/svg" viewBox="0 0 576 512"><!--! Font Awesome Pro 6.6.0 by @fontawesome - https://fontawesome.com License - https://fontawesome.com/license (Commercial License) Copyright 2024 Fonticons, Inc. --><path d="M576 0L0 0 0 416l240 0-10.7 32L160 448l-32 0 0 64 32 0 256 0 32 0 0-64-32 0-69.3 0L336 416l240 0L576 0zM512 64l0 224L64 288 64 64l448 0z"/></svg>

<svg xmlns="http://www.w3.org/2000/svg" viewBox="0 0 576 512"><!--! Font Awesome Pro 6.4.0 by @fontawesome - https://fontawesome.com License - https://fontawesome.com/license (Commercial License) Copyright 2023 Fonticons, Inc. --><path d="M576 0H0V416H240l-10.7 32H160 128v64h32H416h32V448H416 346.7L336 416H576V0zM512 64V288H64V64H512z"/></svg>
